X:1
T:Nei campi e nelle selve
T:Nei campi e nelle selve
T:(Zweite Komposition)
T:Ludvig van Beethoven
C:Ludvig van Beethoven
%%score [ ( 1 2 ) ( 3 4 ) ]
L:1/8
Q:1/4=70
M:2/4
K:C
V:1 treble nm="S\nA"
V:2 treble 
V:3 bass nm="T\nB"
V:4 bass 
V:1
"^(Allegro)" G | G G G G | G3/2 F/ E E | A A F F | E E z E | G G G G | G2 A2- | A G/ F/ E F | %8
w: Nei|cam- pi~e nel- le|sel- * ve se-|gui- vo già le|bel- ve, pas-|ce- vo~il greg- ge~an-|cor li-|* be- ro pa- sto-|
 F E A2- | A G/ F/ E D | E4 |[K:Eb]"^Adagio" G G/ G/ A A | F E z G | A3/2 A/ G G | G2 z G | %15
w: rel- lo, li-|* be- ro cac- cia-|tor.|O- ra non son più|quel- lo: Per-|dei la li- ber-|tà. E|
 G3/2 G/ ^F G/ G/ | =A A z2 | c c/ c/ c3/2 B/4=A/4 | G G z2 | c c/ c/ c3/2 B/4=A/4 | G G z G | %21
w: quel chè peg- gio, oh|Di- o!|Co- me se~il mio tor- *|men- to|col- pa non sia di *|le- i, mo-|
 G G G G | G G z2 | E E3/4 E/4 D ^F | G2 z2 | F F/ F/ F3/2 F/ | E E z2 | F F/ F/ F3/2 F/ | %28
w: stra- re~al mio la-|men- to|Clo- ri non vuol pie-|tà,|co- me se~il mio tor-|men- to|col- pa non sia di|
 E E z G | G3/2 G/ G3/2 G/ | A A3 | A A3/4 A/4 G G | G2 A2 | A z z G | c z z A | A z G z | %36
w: le- i, mo-|stra real mio la-|men- to|Clo- ri non vuol pie-|tà, non|vuol, pie-|tà, non|vuol pie-|
 E2 z2!D.C.! |] %37
w: tà.|
V:2
 e | e e e e | e3/2 d/ c c | d d B B | c c z c | d d d d | e2 f2- | f e/ d/ c B | d c f2- | %9
 f e/ d/ c B | c4 |[K:Eb] e e/ e/ e/d/ c/=B/ | d c z e | d3/2 d/ a/f/ d/c/ | c =B z d | %15
 e3/2 e/ e e/ e/ | e d z2 | d d/ d/ e3/2 d/4c/4 | B d z2 | d d/ d/ e3/2 d/4c/4 | B d z d | %21
 g g g/f/ e/d/ | f e z2 | e c3/4 =A/4 G A | G2 z2 | d d/ d/ d3/2 d/ | e c z2 | d d/ d/ d3/2 d/ | %28
 e c z c | c3/2 c/ c3/2 c/ | e/_d/ d3 | f e3/4 _d/4 c =B | c2 e2 | d z z d | e z z e | d z d z | %36
 c2 z2 |] %37
V:3
 C, | C, C, C, C, | C,2 C, C, | F, F, G, G, | C, C, z C, | G, G, G, G, | C,2 F,2- | %7
w: |||||||
 F, F,/ F,/ G, G, | G, A, F,2- | F, F,/ F,/ G, G, | C,4 |[K:Eb] C C/ C/ G, G, | G, C, z C, | %13
w: ||||||
 F,3/2 F,/ F, F, | G,2 z G, | C3/2 C/ A, G,/ G,/ | ^F, F, z2 | ^F, F,/ F,/ F,3/2 F,/ | %18
w: |||||
 G, G, D B,/ G,/ | ^F,3/2 F,/ F,3/2 F,/ | G, G,/ G,/ B, G,/ D,/ | B,, B, B, =B, | C C, z2 | %23
w: * * col- pa non|sia, non sia di|le- i, mo- stra- re- al|mio, al mio la-|men- to|
 C, C,3/4 C,/4 D, D, | G,,2 z2 | =B,, B,,/ B,,/ B,,3/2 B,,/ | C, C, z2 | %27
w: ||||
 =B,, B,,/ B,,/ B,,3/2 B,,/ | C, C, z E, | E,3/2 E,/ E,3/2 E,/ | F, F,3 | F, F,3/4 F,/4 G, G, | %32
w: |||||
 C,2 A,2 | F, F, G, z | z C, A, A, | F, z G, z | C,2 z2 |] %37
w: |||||
V:4
 C | C C C C | C2 C C | F F D D | C C z C | B, B, B, B, | C2 C2- | C C/ C/ C D | B, C C2- | %9
w: |||||||||
 C C/ C/ G G | C4 |[K:Eb] C C/ C/ =B, D | =B, C z C | C3/2 C/ C F/E/ | E D z =B, | %15
w: ||||||
 C3/2 C/ C C/ C/ | C C z2 | =A, A,/ A,/ A,3/2 D/ | D B, z2 | =A,3/2 A,/ A,3/2 D/ | D B, z B, | %21
w: ||||||
 D D D D | D C z2 | C C3/4 C/4 B, C | B,2 G, G, | G, G,/ G,/ A,3/2 G,/ | G, G, G, G, | %27
w: |||* co- me,||* * col- pa,|
 G, G,/ G,/ A,3/2 G,/ | G, G, z C | C3/2 C/ C3/2 C/ | C/F/ F3 | F F3/4 F/4 E D | E2 C2 | %33
w: ||||||
 C C =B, z | x E C C | C z =B, z | C2 z2 |] %37
w: * non voul|pie- tà, non|vuol pie-|tà.|

